X:1
T:Title
%%score { 1 | ( 2 3 ) }
L:1/8
M:3/4
K:D
V:1 treble nm="Grand Piano"
V:2 bass 
V:3 bass 
V:1
 z2 z2[Q:1/4=100] FG | [DFA][DFA] [DFA]2 [DF]2 | [DBd][DBd] [DBd]2 [DGB]2 | [DFA][DF] [CE]2 [CA]2 | %4
 F4 FG | [DFA][DFA] [DFA]2 [DF]2 | [DBd][DBd] [DBd]2 [DGB]2 | [DFA][DF] [CE]2 [CA]2 |[M:2/4] D4 | %9
[M:1/4] CD |[M:3/4] [CE][CE] [CE]2 [CA]2 | [Ec]4 [CEA]2 | ^GB ed cB | [A,CA]4 [CGA]2 | %14
 [DFA][DFA] [DFA]2 [DF]2 |[M:7/8] [DBd][DBd] [DBd]3 [DGB]2 |[M:3/4] [DFA][DF] [CE]2 [CA]2 | %17
[M:2/4] D4 |] %18
V:2
 z2 z2 DE | D,D, D,2 D,2 | G,,G,, G,,2 G,,2 | A,,[A,,A,] [A,,A,]2 [A,,A,]2 | [D,A,D]4 DE | %5
 D,D, D,2 D,2 | G,,G,, G,,2 G,,2 | A,,[A,,A,] [A,,A,]2 [A,,G,]2 |[M:2/4] [D,F,]4 | %9
[M:1/4] [A,,E,A,]B, |[M:3/4] [A,,A,][A,,A,] [A,,A,]2 [A,,E,]2 | [A,,A,]4 [A,,A,]2 | %12
 [E,B,E][E,^G,E] [E,E]-[E,B,E] [A,E][G,D] | A,,4 A,,2 | D,D, D,2 D,2 |[M:7/8] G,,G,, G,,3 G,,2 | %16
[M:3/4] A,,[A,,A,] [A,,A,]2 [A,,G,]2 |[M:2/4] [D,F,]4 |] %18
V:3
 z2 z2 [D,A,]2 | x6 | x6 | x6 | z2 z2 [D,A,]2 | x6 | x6 | x6 |[M:2/4] x4 |[M:1/4] x2 |[M:3/4] x6 | %11
 x6 | z2 .^G,2 E,2 | x6 | x6 |[M:7/8] x7 |[M:3/4] x6 |[M:2/4] x4 |] %18

